X:1
T:dere geliyor dere
O:Turkey
N: Maqam=A-beyati;B is half-flat, also played in G and D; Rhythm:karsilama
M:9/8
L:1/8
Q:1/4=120
K:C_/B
|:de ee e2 d c2|edd2(cd) BA2|Bc de d2Bc2|BAA2A2z2:|
|:de ee e2 d c2|edd2(cd) BA2|Bc de d2Bc2|BAA2A2z2:|

$$$

